Cloud/dashboard/static/tracks/buddh_international_circuit.svg

<?xml version="1.0" encoding="UTF-8"?>
<!-- Uploaded to: SVG Find, www.svgfind.com, Generator: SVG Find Mixer Tools -->
<svg fill="#000000" width="800px" height="800px" version="1.1" viewBox="144 144 512 512" xmlns="http://www.w3.org/2000/svg">
 <path d="m601.46 593.28c-11.074-9.6328-23.355-20.359-29.992-26.309-11.535-10.34-17.957-34.016-7.9102-59.25 1.7656-4.4336 1.4648-9.3633-0.81641-13.527-2.2578-4.1211-6.2031-6.9961-10.824-7.8789l-128.5-24.578 0.99219-4.9688 42.711 8.5234 11.402 2.2773-12.027-11.023-4.2227 2.6055-41.844-8.3516-1.9922 9.9883-85.652-16.383c-2.6328-0.50391-3.2891-2.7109-3.4258-3.375-0.13672-0.66406-0.41406-2.9453 1.8008-4.4531l93.871-63.957c5.7695-3.9258 9.2461-10.438 9.3047-17.418 0.0625-6.9766-3.3008-13.547-9-17.578l-62.859-44.453c-4.625-3.2734-10.43-4.5391-15.992-3.5117l-12.402 2.2969c-9.6289 1.7852-19.379-3.1133-23.715-11.859l-39.586-79.859c-5.0586-10.199-16.383-15.93-27.625-13.961l-11.176 1.9648c-12.258 2.1641-20.98 13.176-20.285 25.617 0.87109 15.504 7.1797 27.598 18.25 34.977 18.016 12.016 41.75 28.316 51.117 34.77 1.582 1.0898 2.4688 2.8906 2.3672 4.8125l-0.62109 11.773c-0.41406 7.8164 3.0039 15.387 9.1445 20.246l30.809 24.375c4.4414 3.5156 10.121 5.2812 15.801 4.8867l3.1992-0.20703c3.4648 0 6.4609 2.5859 6.9727 6.0195l3.3828 22.719c0.75 5.0352-1.5664 10.008-5.9023 12.672l-145.75 89.594c-4.3594 2.6836-6.6367 7.5-5.9375 12.574 0.69922 5.0742 4.1953 9.0938 9.1172 10.496l386.78 110.07c1.1133 0.31641 2.25 0.47656 3.3711 0.47656h0.003906c4.9219 0 9.2422-3.0547 11.012-7.7852 1.7656-4.7188 0.48047-9.7188-3.3516-13.051zm-6.1523 9.5c-0.058594 0.14062-0.67578 1.5195-2.1055 1.1016l-386.77-110.07c-1.457-0.41406-1.7773-1.6211-1.8438-2.125-0.070313-0.49609-0.089844-1.7461 1.1992-2.5391l145.75-89.598c7.8008-4.8008 11.973-13.754 10.625-22.816l-3.3828-22.719c-1.25-8.3633-8.5586-14.672-17.012-14.672-0.39844 0-0.80078 0.015624-1.2109 0.042968l-2.6953 0.1875c-3.1758 0.20312-6.3242-0.76562-8.7969-2.7188l-30.809-24.375c-3.5664-2.8203-5.5508-7.2148-5.3086-11.75l0.62109-11.773c0.28516-5.3945-2.3008-10.648-6.7461-13.707-9.3867-6.4648-33.164-22.801-51.242-34.855-8.4297-5.6211-13.055-14.738-13.746-27.102-0.41016-7.3125 4.7109-13.785 11.914-15.055l11.176-1.9727c6.8789-1.2031 13.742 2.3672 16.77 8.4727l39.586 79.859c5.4648 11.023 16.5 17.867 28.793 17.867 1.957 0 3.9297-0.17969 5.8633-0.53906l12.402-2.2969c2.918-0.54688 5.8906 0.125 8.2852 1.8203l62.859 44.453c3.0273 2.1406 4.7461 5.4961 4.7109 9.2031-0.03125 3.707-1.8047 7.0312-4.8711 9.1172l-93.879 63.965c-4.9258 3.3555-7.2344 9.0664-6.0234 14.902 1.2109 5.8359 5.5977 10.16 11.453 11.281l219.13 41.918c1.6641 0.31641 3.0234 1.3047 3.8359 2.7891 0.82422 1.5 0.92578 3.2852 0.28516 4.8945-11.766 29.555-3.5898 57.871 10.566 70.562 6.6641 5.9727 18.988 16.738 30.105 26.41 0.25 0.21094 0.90625 0.77734 0.51172 1.8398z"/>
</svg>

<?xml version="1.0" encoding="utf-8"?>
<svg fill="#000000" width="800px" height="800px" version="1.1" viewBox="144 144 512 512" xmlns="http://www.w3.org/2000/svg">
  <path d="M 601.46 593.28 C 590.386 583.647 578.105 572.921 571.468 566.971 C 559.933 556.631 553.511 532.955 563.558 507.721 C 565.323 503.287 565.023 498.358 562.741 494.194 C 560.484 490.073 556.538 487.198 551.917 486.315 L 332.785 444.405 C 330.152 443.901 329.496 441.694 329.359 441.03 C 329.222 440.366 328.945 438.085 331.16 436.577 L 425.031 372.62 C 430.8 368.694 434.277 362.182 434.335 355.202 C 434.398 348.226 431.035 341.655 425.335 337.624 L 362.476 293.171 C 357.851 289.898 352.046 288.632 346.484 289.659 L 334.082 291.956 C 324.453 293.742 314.703 288.843 310.367 280.097 L 270.781 200.238 C 265.723 190.039 254.398 184.308 243.156 186.277 L 231.98 188.242 C 219.722 190.406 211 201.418 211.695 213.859 C 212.566 229.363 218.875 241.457 229.945 248.836 C 247.961 260.852 271.695 277.152 281.062 283.606 C 282.644 284.696 283.531 286.497 283.43 288.419 L 282.809 300.192 C 282.394 308.008 285.812 315.579 291.953 320.438 L 322.762 344.813 C 327.203 348.328 332.883 350.094 338.563 349.699 L 341.762 349.492 C 345.227 349.492 348.223 352.078 348.735 355.512 L 352.118 378.231 C 352.868 383.266 350.551 388.239 346.215 390.903 L 200.465 480.497 C 196.106 483.18 193.829 487.997 194.528 493.071 C 195.227 498.145 198.723 502.165 203.645 503.567 L 590.425 613.637 C 591.538 613.953 592.675 614.113 593.796 614.113 L 593.8 614.113 C 598.722 614.113 603.042 611.059 604.812 606.328 C 606.578 601.609 605.293 596.609 601.46 593.277 L 601.46 593.28 Z M 595.308 602.78 C 595.249 602.921 594.632 604.299 593.202 603.882 L 206.432 493.812 C 204.975 493.398 204.655 492.191 204.588 491.687 C 204.518 491.191 204.499 489.941 205.788 489.148 L 351.538 399.55 C 359.338 394.749 363.511 385.796 362.163 376.734 L 358.78 354.015 C 357.53 345.651 350.221 339.343 341.768 339.343 C 341.369 339.343 340.967 339.358 340.557 339.386 L 337.862 339.573 C 334.686 339.776 331.537 338.807 329.065 336.854 L 298.256 312.479 C 294.689 309.659 292.705 305.264 292.947 300.729 L 293.568 288.956 C 293.853 283.562 291.267 278.308 286.822 275.249 C 277.435 268.784 253.658 252.448 235.58 240.394 C 227.15 234.773 222.525 225.656 221.834 213.292 C 221.424 205.98 226.545 199.507 233.748 198.237 L 244.924 196.265 C 251.803 195.061 258.666 198.632 261.694 204.737 L 301.28 284.596 C 306.745 295.619 317.78 302.463 330.073 302.463 C 332.03 302.463 334.003 302.284 335.936 301.924 L 348.338 299.627 C 351.256 299.08 354.229 299.752 356.624 301.448 L 419.483 345.901 C 422.51 348.041 424.229 351.397 424.194 355.104 C 424.162 358.811 422.389 362.135 419.322 364.221 L 325.443 428.186 C 320.518 431.541 318.209 437.252 319.42 443.088 C 320.631 448.924 325.018 453.248 330.873 454.369 L 550.003 496.287 C 551.667 496.603 553.026 497.592 553.839 499.076 C 554.663 500.576 554.765 502.361 554.124 503.97 C 542.358 533.525 550.534 561.841 564.69 574.532 C 571.354 580.505 583.678 591.27 594.795 600.942 C 595.045 601.153 595.701 601.72 595.307 602.782 L 595.308 602.78 Z"/>
</svg>
